X:527
T:Mueira d'El Rebol.lal (XA 50)
R:Mueira
C:Tradicional
S:Msica Tradicional Asturiana, (C) Tello & Tito. Asturies, 2001.
S:http://pagina.de/MusTradAst <telloytito@asturies.org>
A:Asturies
O:El Rebol.lal
Z:Mtodu de Xuacu Amieva 50
M:6/8
L:1/8
Q:3/8=120
K:C
GAB
|cBc BAB|GCG ABc|A2 B G2 A|.F.FF GAB|~G2 A FFG|~EDE F2 G|EF~E DEF|~G2 G ABc|
|BcB ABA|GCG ABc|A2 B G2 A|.F.FF GAB|GGA FFG|EDE F2 G|EFE DED|C3-CEF|
|G2 A F2 G|~EDC EEE|EDC DEF|~G2 G GEF|G2 A F2 G|~EDC EEE|EDC DED|C3-CEF|
|G2 A F2 G|~EDC EEE|EDC DEF|~G2 G GEF|.GGA .FFG|~EDC EEE|EDC DED|C3 z3|
